dji-master/img/content/specifications/radio.svg

<svg width="35" height="35" viewBox="0 0 35 35" fill="none" xmlns="http://www.w3.org/2000/svg">
<g clip-path="url(#clip0)">
<path d="M7.88539 27.8133C4.17737 24.8587 2.05078 20.4467 2.05078 15.7089C2.05078 10.9712 4.17724 6.55934 7.88512 3.60471C8.32802 3.25177 8.40089 2.6066 8.04795 2.16376C7.69508 1.72086 7.0499 1.64792 6.607 2.00086C2.40816 5.34685 0 10.3432 0 15.7089C0 21.0748 2.40823 26.0712 6.60734 29.4171C7.04997 29.7699 7.69521 29.6973 8.04829 29.2542C8.40116 28.8113 8.32829 28.1662 7.88539 27.8133Z" fill="#1AA0E8"/>
<path d="M28.3931 2.00083C27.9501 1.64796 27.3051 1.72083 26.9521 2.16373C26.5992 2.60664 26.6721 3.25174 27.115 3.60468C30.8227 6.55938 32.9492 10.9712 32.9492 15.7088C32.9492 20.4465 30.8227 24.8583 27.1149 27.8129C26.672 28.1659 26.5991 28.811 26.9521 29.2539C27.3051 29.697 27.9504 29.7694 28.393 29.4168C32.5918 26.0708 34.9999 21.0744 34.9999 15.7088C34.9999 10.3432 32.5918 5.34682 28.3931 2.00083Z" fill="#1AA0E8"/>
<path d="M11.3022 23.5333C8.89827 21.6212 7.51953 18.7693 7.51953 15.709C7.51953 12.6486 8.89827 9.79675 11.3023 7.8846C11.7454 7.53207 11.819 6.88703 11.4664 6.44379C11.1138 6.00054 10.4688 5.92706 10.0256 6.27959C7.12968 8.58309 5.46875 12.0199 5.46875 15.709C5.46875 19.398 7.12968 22.8349 10.0255 25.1383C10.469 25.491 11.1139 25.4171 11.4663 24.9741C11.8189 24.5309 11.7454 23.8858 11.3022 23.5333Z" fill="#1AA0E8"/>
<path d="M24.9744 6.27956C24.5312 5.9271 23.8862 6.00052 23.5336 6.44376C23.1811 6.88693 23.2546 7.53204 23.6977 7.88457C26.1017 9.79665 27.4804 12.6485 27.4804 15.7088C27.4804 18.7692 26.1017 21.6211 23.6977 23.5332C23.2545 23.8857 23.1809 24.5308 23.5335 24.974C23.8863 25.4175 24.5314 25.4905 24.9743 25.1382C27.8702 22.8347 29.5312 19.3979 29.5312 15.7088C29.5312 12.0198 27.8703 8.583 24.9744 6.27956Z" fill="#1AA0E8"/>
<path d="M17.5 10.5957C14.673 10.5957 12.373 12.8957 12.373 15.7227C12.373 18.1986 14.1373 20.2701 16.4746 20.7465V32.1973C16.4746 32.7636 16.9337 33.2227 17.5 33.2227C18.0663 33.2227 18.5254 32.7636 18.5254 32.1973V20.7465C20.8627 20.2701 22.627 18.1986 22.627 15.7227C22.627 12.8957 20.327 10.5957 17.5 10.5957ZM17.5 18.7988C15.8038 18.7988 14.4238 17.4189 14.4238 15.7227C14.4238 14.0265 15.8038 12.6465 17.5 12.6465C19.1962 12.6465 20.5762 14.0265 20.5762 15.7227C20.5762 17.4189 19.1962 18.7988 17.5 18.7988Z" fill="#1AA0E8"/>
</g>
<defs>
<clipPath id="clip0">
<rect width="35" height="35" fill="white"/>
</clipPath>
</defs>
</svg>

<svg width="35" height="35" fill="none" xmlns="http://www.w3.org/2000/svg"><g clip-path="url(#clip0)" fill="#1AA0E8"><path d="M7.885 27.813A15.4 15.4 0 012.051 15.71 15.4 15.4 0 017.885 3.605 1.025 1.025 0 006.607 2 17.44 17.44 0 000 15.709a17.44 17.44 0 006.607 13.708 1.025 1.025 0 101.278-1.604zM28.393 2a1.025 1.025 0 00-1.278 1.605 15.4 15.4 0 015.834 12.104 15.4 15.4 0 01-5.834 12.104 1.025 1.025 0 001.278 1.604A17.44 17.44 0 0035 15.709 17.44 17.44 0 0028.393 2z"/><path d="M11.302 23.533A9.95 9.95 0 017.52 15.71a9.95 9.95 0 013.782-7.824 1.025 1.025 0 00-1.276-1.605 11.99 11.99 0 00-4.557 9.429 11.99 11.99 0 004.556 9.43 1.025 1.025 0 001.277-1.606zM24.974 6.28a1.025 1.025 0 00-1.276 1.605 9.95 9.95 0 013.782 7.824 9.95 9.95 0 01-3.782 7.824 1.025 1.025 0 101.276 1.605 11.99 11.99 0 004.557-9.43 11.99 11.99 0 00-4.557-9.428zM17.5 10.596a5.133 5.133 0 00-5.127 5.127 5.136 5.136 0 004.102 5.024v11.45a1.025 1.025 0 002.05 0v-11.45a5.136 5.136 0 004.102-5.024c0-2.827-2.3-5.127-5.127-5.127zm0 8.203a3.08 3.08 0 01-3.076-3.076 3.08 3.08 0 013.076-3.077 3.08 3.08 0 013.076 3.077 3.08 3.08 0 01-3.076 3.076z"/></g><defs><clipPath id="clip0"><path fill="#fff" d="M0 0h35v35H0z"/></clipPath></defs></svg>
